icons/vscode/vscode-plain.svg

<svg width="128" height="128" viewBox="0 0 128 128" xmlns="http://www.w3.org/2000/svg">
<path fill-rule="evenodd" clip-rule="evenodd" d="M90.7672 127.126C92.7832 127.911 95.082 127.861 97.1168 126.882L123.47 114.201C126.239 112.869 128 110.066 128 106.992V21.0091C128 17.9345 126.239 15.132 123.47 13.7995L97.1168 1.11848C94.4463 -0.16649 91.3211 0.148248 88.9773 1.85217C88.6426 2.09558 88.3236 2.36735 88.0243 2.66684L37.5745 48.6932L15.5996 32.0124C13.5539 30.4596 10.6926 30.5868 8.79274 32.3151L1.74468 38.7264C-0.579266 40.8403 -0.58193 44.4963 1.73892 46.6138L20.7963 64.0002L1.73892 81.3866C-0.58193 83.504 -0.579266 87.1601 1.74468 89.2741L8.79274 95.6853C10.6926 97.4136 13.5539 97.5408 15.5996 95.9879L37.5745 79.3072L88.0243 125.333C88.8224 126.132 89.7595 126.733 90.7672 127.126ZM96.0195 34.9427L57.7396 64.0002L96.0195 93.0576V34.9427Z" fill="black"/>
</svg>

<svg xmlns="http://www.w3.org/2000/svg" viewBox="0 0 128 128"><path fill-rule="evenodd" d="M90.767 127.126a7.968 7.968 0 0 0 6.35-.244l26.353-12.681a8 8 0 0 0 4.53-7.209V21.009a8 8 0 0 0-4.53-7.21L97.117 1.12a7.97 7.97 0 0 0-9.093 1.548l-50.45 46.026L15.6 32.013a5.328 5.328 0 0 0-6.807.302l-7.048 6.411a5.335 5.335 0 0 0-.006 7.888L20.796 64 1.74 81.387a5.336 5.336 0 0 0 .006 7.887l7.048 6.411a5.327 5.327 0 0 0 6.807.303l21.974-16.68 50.45 46.025a7.96 7.96 0 0 0 2.743 1.793Zm5.252-92.183L57.74 64l38.28 29.058V34.943Z" clip-rule="evenodd"/></svg>
